Numix/64/emotes/face-ninja.svg

<?xml version="1.0" encoding="UTF-8" standalone="no"?>
<svg
   xmlns:dc="http://purl.org/dc/elements/1.1/"
   xmlns:cc="http://creativecommons.org/ns#"
   xmlns:rdf="http://www.w3.org/1999/02/22-rdf-syntax-ns#"
   xmlns:svg="http://www.w3.org/2000/svg"
   xmlns="http://www.w3.org/2000/svg"
   xmlns:sodipodi="http://sodipodi.sourceforge.net/DTD/sodipodi-0.dtd"
   xmlns:inkscape="http://www.inkscape.org/namespaces/inkscape"
   width="64px"
   height="64px"
   viewBox="0 0 48 48"
   version="1.1"
   id="svg613"
   inkscape:version="0.91 r"
   sodipodi:docname="face-ninja.svg">
  <metadata
     id="metadata632">
    <rdf:RDF>
      <cc:Work
         rdf:about="">
        <dc:format>image/svg+xml</dc:format>
        <dc:type
           rdf:resource="http://purl.org/dc/dcmitype/StillImage" />
      </cc:Work>
    </rdf:RDF>
  </metadata>
  <defs
     id="defs630" />
  <sodipodi:namedview
     pagecolor="#ffffff"
     bordercolor="#666666"
     borderopacity="1"
     objecttolerance="10"
     gridtolerance="10"
     guidetolerance="10"
     inkscape:pageopacity="0"
     inkscape:pageshadow="2"
     inkscape:window-width="640"
     inkscape:window-height="480"
     id="namedview628" />
  <g
     id="surface1">
    <path
       style=" stroke:none;fill-rule:nonzero;fill:rgb(100%,85.490196%,36.862745%);fill-opacity:1;"
       d="M 42 24 C 42 32.5625 33.941406 39.5 24 39.5 C 14.058594 39.5 6 32.5625 6 24 C 6 15.441406 14.058594 8.5 24 8.5 C 33.941406 8.5 42 15.441406 42 24 Z M 42 24 "
       id="path616" />
    <path
       style=" stroke:none;fill-rule:nonzero;fill:rgb(39.607843%,39.607843%,39.607843%);fill-opacity:1;"
       d="M 20.5 20.5 C 20.5 21.878906 19.378906 23 18 23 C 16.621094 23 15.5 21.878906 15.5 20.5 C 15.5 19.121094 16.621094 18 18 18 C 19.378906 18 20.5 19.121094 20.5 20.5 Z M 20.5 20.5 "
       id="path618" />
    <path
       style=" stroke:none;fill-rule:nonzero;fill:rgb(39.607843%,39.607843%,39.607843%);fill-opacity:1;"
       d="M 32.5 20.5 C 32.5 21.878906 31.378906 23 30 23 C 28.621094 23 27.5 21.878906 27.5 20.5 C 27.5 19.121094 28.621094 18 30 18 C 31.378906 18 32.5 19.121094 32.5 20.5 Z M 32.5 20.5 "
       id="path620" />
    <path
       style=" stroke:none;fill-rule:nonzero;fill:rgb(16.862745%,16.862745%,16.862745%);fill-opacity:1;"
       d="M 24.523438 8.507812 C 16.636719 8.316406 9.523438 12.570312 6.980469 19 L 41.027344 19 C 38.605469 12.878906 32.027344 8.699219 24.523438 8.507812 Z M 24.523438 8.507812 "
       id="path622" />
    <path
       style=" stroke:none;fill-rule:nonzero;fill:rgb(16.862745%,16.862745%,16.862745%);fill-opacity:1;"
       d="M 6.160156 26 C 7.375 33.679688 14.992188 39.40625 23.996094 39.40625 C 32.996094 39.40625 40.613281 33.679688 41.828125 26 Z M 6.160156 26 "
       id="path624" />
    <path
       style=" stroke:none;fill-rule:nonzero;fill:rgb(24.705882%,24.705882%,24.705882%);fill-opacity:1;"
       d="M 20.5 31 L 27.5 31 C 27.777344 31 28 31.222656 28 31.5 L 28 32.5 C 28 32.777344 27.777344 33 27.5 33 L 20.5 33 C 20.222656 33 20 32.777344 20 32.5 L 20 31.5 C 20 31.222656 20.222656 31 20.5 31 Z M 20.5 31 "
       id="path626" />
  </g>
</svg>

<svg xmlns="http://www.w3.org/2000/svg" width="64" height="64" viewBox="0 0 48 48">
 <g>
  <path d="m 42 24 c 0 8.563 -8.06 15.5 -18 15.5 c -9.941 0 -18 -6.938 -18 -15.5 c 0 -8.559 8.06 -15.5 18 -15.5 c 9.941 0 18 6.941 18 15.5 m 0 0" style="fill:#ffd95d;fill-opacity:1;stroke:none;fill-rule:nonzero"/>
  <path d="m 20.5 20.5 c 0 1.379 -1.121 2.5 -2.5 2.5 c -1.379 0 -2.5 -1.121 -2.5 -2.5 c 0 -1.379 1.121 -2.5 2.5 -2.5 c 1.379 0 2.5 1.121 2.5 2.5 m 0 0" style="fill:#646464;fill-opacity:1;stroke:none;fill-rule:nonzero"/>
  <path d="m 32.5 20.5 c 0 1.379 -1.121 2.5 -2.5 2.5 c -1.379 0 -2.5 -1.121 -2.5 -2.5 c 0 -1.379 1.121 -2.5 2.5 -2.5 c 1.379 0 2.5 1.121 2.5 2.5 m 0 0" style="fill:#646464;fill-opacity:1;stroke:none;fill-rule:nonzero"/>
  <path d="m 24.523 8.508 c -7.887 -0.191 -15 4.063 -17.543 10.492 l 34.05 0 c -2.422 -6.121 -9 -10.301 -16.504 -10.492 m 0 0" style="fill:#2a2a2a;fill-opacity:1;stroke:none;fill-rule:nonzero"/>
  <path d="m 6.16 26 c 1.215 7.68 8.832 13.406 17.836 13.406 c 9 0 16.617 -5.727 17.832 -13.406 m -35.668 0" style="fill:#2a2a2a;fill-opacity:1;stroke:none;fill-rule:nonzero"/>
  <path d="m 20.5 31 l 7 0 c 0.277 0 0.5 0.223 0.5 0.5 l 0 1 c 0 0.277 -0.223 0.5 -0.5 0.5 l -7 0 c -0.277 0 -0.5 -0.223 -0.5 -0.5 l 0 -1 c 0 -0.277 0.223 -0.5 0.5 -0.5 m 0 0" style="fill:#3e3e3e;fill-opacity:1;stroke:none;fill-rule:nonzero"/>
 </g>
</svg>
